X: 1
T: Acrobat's Reel
O: Trad Qu\'ebec
R: reel
F: http://mustrad.udenap.org/partitions/TQ224.jpg
Z: 2010 John Chambers <jc:trillian.mit.edu>
M: 2/4
L: 1/16
K: A
(3efg \
| a2ed cBAc | BAGB A2 (3cBA | EFGA BcdB |1,3 cBAc B2 :|2,4 {c}BAGB A2 :|
|: (3agf \
| ecAc ecfc | ecAc ecfc | agfe dcBA | GABc defa |
| ecAc ecfc | ecAc ecfc | agfe dcBA |1,2 GABc A2 :|["Fin" GABG HA2 |]
